usr/share/icons/biglinux-icons-material/scalable/apps/libreoffice-math.svg

<svg width="24" height="24" viewBox="0 0 24 24" fill="none" xmlns="http://www.w3.org/2000/svg">
<path fill-rule="evenodd" clip-rule="evenodd" d="M9.59604 1.11359C9.71588 1.11486 9.83043 1.0996 9.93969 1.06779C11.3755 0.973736 12.8111 0.977551 14.2467 1.07924C15.5484 1.18066 16.8085 1.46308 18.0269 1.9265C20.0525 2.76044 21.4386 4.2069 22.185 6.26586C22.6119 7.50549 22.8639 8.78021 22.9411 10.09C23.0478 11.7347 23.0096 13.3758 22.8265 15.0133C22.6895 16.1642 22.3916 17.271 21.933 18.3336C21.0824 20.1761 19.704 21.447 17.7978 22.1463C16.2531 22.6682 14.6647 22.943 13.0325 22.9706C11.1966 23.0661 9.37913 22.9287 7.57997 22.5585C4.26839 21.8208 2.22559 19.8018 1.45158 16.5017C1.12311 15.0161 0.974199 13.5124 1.00483 11.9906C0.968176 10.3724 1.14 8.77709 1.52031 7.20471C2.33171 4.11908 4.2905 2.20701 7.39669 1.46852C8.12048 1.29157 8.8536 1.17326 9.59604 1.11359Z" fill="url(#paint0_radial_1_29)"/>
<path d="M17.8732 6.854L12.1694 6.85685L9.00318 12.3403L7.89452 10.4188H6.46859V11.1318H7.48671L9.00746 13.7648L12.5865 7.56696H17.1638V8.27993H17.8767L17.8732 6.854ZM14.3083 8.99289C13.1234 8.99289 12.1694 9.94683 12.1694 11.1318C12.1694 12.3167 13.1234 13.2707 14.3083 13.2707C14.8595 13.2707 15.3557 13.0582 15.7343 12.7181V13.2707H16.4472V8.99289H15.7343V9.54544C15.3557 9.20535 14.8595 8.99289 14.3083 8.99289ZM14.3083 9.70585C15.0983 9.70585 15.7343 10.3418 15.7343 11.1318C15.7343 11.9217 15.0983 12.5577 14.3083 12.5577C13.5184 12.5577 12.8824 11.9217 12.8824 11.1318C12.8824 10.3418 13.5184 9.70585 14.3083 9.70585ZM5.75991 14.6895C5.75563 14.6895 5.75278 14.8485 5.75278 15.0459C5.75278 15.2434 5.75563 15.4024 5.75991 15.4024H18.579C18.5833 15.4024 18.5861 15.2434 18.5861 15.0459C18.5861 14.8485 18.5833 14.6895 18.579 14.6895H5.75991ZM11.4636 16.8284C11.4593 16.8284 11.4565 16.9873 11.4565 17.1848C11.4565 17.3823 11.4593 17.5413 11.4636 17.5413H12.8753C12.8796 17.5413 12.8824 17.3823 12.8824 17.1848C12.8824 16.9873 12.8796 16.8284 12.8753 16.8284H11.4636Z" fill="#FAFAFA"/>
<defs>
<radialGradient id="paint0_radial_1_29" cx="0" cy="0" r="1" gradientUnits="userSpaceOnUse" gradientTransform="translate(12 1) rotate(90) scale(11)">
<stop stop-color="#9B9B9B"/>
<stop offset="1" stop-color="#656565"/>
</radialGradient>
</defs>
</svg>

<svg xmlns="http://www.w3.org/2000/svg" width="24" height="24" fill="none"><path fill="url(#a)" fill-rule="evenodd" d="M9.596 1.114c.12 0 .234-.014.344-.046a31.627 31.627 0 0 1 4.307.011c1.301.102 2.561.384 3.78.848 2.025.833 3.412 2.28 4.158 4.339.427 1.24.679 2.514.756 3.824a27.94 27.94 0 0 1-.114 4.923 11.88 11.88 0 0 1-.894 3.32c-.85 1.843-2.229 3.114-4.135 3.813a15.624 15.624 0 0 1-4.765.825 21.423 21.423 0 0 1-5.453-.413c-3.312-.737-5.354-2.756-6.128-6.056a19.047 19.047 0 0 1-.447-4.511 18.491 18.491 0 0 1 .515-4.786c.812-3.086 2.77-4.998 5.877-5.736a13.953 13.953 0 0 1 2.199-.355Z" clip-rule="evenodd"/><path fill="#FAFAFA" d="m17.873 6.854-5.704.003-3.166 5.483-1.108-1.921H6.469v.713h1.018l1.52 2.633 3.58-6.198h4.577v.713h.713l-.004-1.426Zm-3.565 2.139a2.134 2.134 0 0 0-2.139 2.139 2.134 2.134 0 0 0 3.565 1.586v.553h.713V8.993h-.713v.552a2.125 2.125 0 0 0-1.426-.552Zm0 .713c.79 0 1.426.636 1.426 1.426 0 .79-.636 1.426-1.426 1.426-.79 0-1.426-.636-1.426-1.426 0-.79.636-1.426 1.426-1.426ZM5.76 14.69c-.004 0-.007.159-.007.356 0 .197.003.356.007.356h12.819c.004 0 .007-.159.007-.356 0-.197-.003-.356-.007-.356H5.759Zm5.704 2.138a4.26 4.26 0 0 0-.008.357c0 .197.003.356.008.356h1.411c.005 0 .007-.159.007-.356a4.26 4.26 0 0 0-.007-.357h-1.411Z"/><defs><radialGradient id="a" cx="0" cy="0" r="1" gradientTransform="matrix(0 11 -11 0 12 1)" gradientUnits="userSpaceOnUse"><stop stop-color="#9B9B9B"/><stop offset="1" stop-color="#656565"/></radialGradient></defs></svg>
